fs/flag_off_28_filled.svg

<svg viewBox="0 0 28 28" fill="none" xmlns="http://www.w3.org/2000/svg" height="1em" width="1em">
  <path d="M2.39705 1.55379L2.46967 1.46967C2.73594 1.2034 3.1526 1.1792 3.44621 1.39705L3.53033 1.46967L23.5303 21.4697C23.8232 21.7626 23.8232 22.2374 23.5303 22.5303C23.2641 22.7966 22.8474 22.8208 22.5538 22.6029L22.4697 22.5303L17.938 17.999L5.5 18V24.25C5.5 24.6642 5.16421 25 4.75 25C4.3703 25 4.05651 24.7178 4.00685 24.3518L4 24.25L3.999 4.06L2.46967 2.53033C2.2034 2.26406 2.1792 1.8474 2.39705 1.55379L2.46967 1.46967L2.39705 1.55379ZM7.06 2.99918L23.25 3C23.8055 3 24.1561 3.57593 23.9333 4.06007L23.8847 4.14961L19.8863 10.5L23.8847 16.8504C24.1806 17.3205 23.8801 17.924 23.3517 17.9934L23.25 18L22.061 17.9992L7.06 2.99918Z" fill="#212121"/>
</svg>

<svg viewBox="0 0 28 28" fill="none" xmlns="http://www.w3.org/2000/svg" height="1em" width="1em">
  <path d="m2.397 1.554.073-.084a.75.75 0 0 1 .976-.073l.084.073 20 20a.75.75 0 0 1-.976 1.133l-.084-.073L17.938 18H5.5v6.25a.75.75 0 0 1-1.493.102L4 24.25 3.999 4.06l-1.53-1.53a.75.75 0 0 1-.072-.976l.073-.084-.073.084ZM7.06 2.999 23.25 3a.75.75 0 0 1 .683 1.06l-.048.09-3.999 6.35 3.999 6.35a.75.75 0 0 1-.533 1.143L23.25 18h-1.189L7.06 3Z" fill="#212121"/>
</svg>
